!!!!SEGMENT: pl-sa--81-a-ii-21--001_brentner-johann-joseph-ignaz--huc-mariani-huc-amatores.krn
!!!id: 17xx:556
!!!COM: Brentner, Johann Joseph Ignaz
!!!COM-rism: pe30000477
!!!CDT: 1689/11/03-1742/06/28
!!!CNT: Czech
!!!OTL: Huc mariani huc amatores
!!!PDT:
!!!SMS-siglum: PL-SA
!!!SMS-shelfmark: 81/A II 21
!!!NIFC-rismID: 1001041170
!!!URL-scan: http://bc.bdsandomierz.pl/dlibra/publication/1359/edition/1327/content
!!!ONB-nifc:
!!!SMS-variant:
!!!SMS-altvar:
**kern	**fba	**kernyy	**dynam	**kernyy	**dynam	**kernyy	**dynam	**kernyy	**text
*part5	*part5	*part4	*part4	*part3	*part3	*part2	*part2	*part1	*part1
*staff5	*	*staff4	*	*staff3	*	*staff2	*	*staff1	*staff1
*I"Organo	*	*I"Alto Viola.	*	*I"Violino 2do	*	*I"Violino 1mo	*	*I"Canto	*
*I'Org	*	*I'a-vla	*	*I'Vl 2	*	*I'Vl 1	*	*I'S	*
*group3	*	*group2	*	*group2	*	*group2	*	*group1	*
*clefF4	*	*clefC3	*	*clefG2	*	*clefG2	*	*clefC1	*
*k[f#c#]	*	*k[f#c#]	*	*k[f#c#]	*	*k[f#c#]	*	*k[f#c#]	*
*D:	*	*D:	*	*D:	*	*D:	*	*D:	*
*M2/4	*	*M2/4	*	*M2/4	*	*M2/4	*	*M2/4	*
=1	=1	=1	=1	=1	=1	=1	=1	=1	=1
!LO:TX:b:t=Huc Mariani	!	!LO:TX:b:t=Huc Mariani	!	!LO:TX:b:t=Huc Mariani	!	!LO:TX:b:t=Huc Mariani	!	!LO:N:vis=00	!
!LO:TX:a:t=Concerto 1mo de Beata	!	!LO:TX:a:t=Concerto 1mo	!	!LO:TX:a:t=Concerto 1mo	!	!LO:TX:a:t=Concerto 1mo	!	!LO:TX:a:t=Concerto 1mo	!
!LO:TX:a:t=P:problem:krzyżyki f- c- f-	!	!LO:TX:a:t=P:problem:krzyżyki f- c- f-	!	!LO:TX:a:t=P:problem:krzyżyki f- c- f-	!	!LO:TX:a:t=P:problem:krzyżyki f- c- f-	!	!LO:TX:a:t=P:problem:krzyżyki c- f- c-	!
4.D\	.	4r	.	4r	.	4r	.	0r	.
.	.	8r	.	8r	.	8r	.	.	.
8r	.	8a\	.	8a/	.	8a/	.	.	.
=2	=2	=2	=2	=2	=2	=2	=2	=2	=2
4r	.	4f#\	.	4f#/	.	4dd\	.	.	.
8r	.	8r	.	8r	.	8r	.	.	.
8AA/	.	8a\	.	8a/	.	8cc#\	.	.	.
=3	=3	=3	=3	=3	=3	=3	=3	=3	=3
4D\	.	8f#\L	.	8b\L	.	8dd\L	.	.	.
.	.	8f#\	.	8cc#\	.	8ee\	.	.	.
8r	.	8f#\	.	8dd\	.	8ff#\	.	.	.
8G\	6	8f#\J	.	8ee\J	.	8gg\J	.	.	.
=4	=4	=4	=4	=4	=4	=4	=4	=4	=4
!LO:TX:t=P:problem:mixed beam	!	!LO:TX:t=P:problem:mixed beam	!	!	!	!LO:TX:a:t=e	!	!	!
8A\L	.	8a\L	.	4.cc#\	.	4.ee\	.	.	.
16AA/L	.	8A/	.	.	.	.	.	.	.
16BB/JJ	.	.	.	.	.	.	.	.	.
8C#/L	.	8A/	.	.	.	.	.	.	.
!	!	!	!	!	!	!LO:TX:a:t=e	!	!	!
8AA/J	.	8A/J	.	8cc#\	.	8ee\	.	.	.
=5	=5	=5	=5	=5	=5	=5	=5	=5	=5
!	!	!	!	!	!	!	!	!LO:N:vis=00	!
8D\L	.	8A/L	.	8dd\L	.	8ff#\L	.	0r	.
8C#\	6	8A/	.	8a\	.	8ee\	.	.	.
8BB\	7	8A/	.	8b\	.	8dd\	.	.	.
8BB\J	6|	8G#X/J	.	16cc#\L	.	8ee\J	.	.	.
.	.	.	.	16b\JJ	.	.	.	.	.
=6	=6	=6	=6	=6	=6	=6	=6	=6	=6
!	!	!LO:TX:t=P:problem:mixed beam	!	!	!	!	!	!	!
8AA/L	.	8A/L	.	4.cc#\	.	4.cc#\	.	.	.
8BB/	.	8e\	.	.	.	.	.	.	.
8C#/	.	8e\	.	.	.	.	.	.	.
8AA/J	.	8c#\J	.	8cc#\	.	8ee\	.	.	.
=7	=7	=7	=7	=7	=7	=7	=7	=7	=7
4D\	.	8f#\L	.	16dd\LL	.	16ff#\LL	.	.	.
.	.	.	.	16cc#\	.	16ee\	.	.	.
.	.	8a\	.	16dd\	.	16ff#\	.	.	.
.	.	.	.	16ee\JJ	.	16gg\JJ	.	.	.
8r	.	8a\	.	16dd\LL	.	16ff#\LL	.	.	.
.	.	.	.	16ee\	.	16gg\	.	.	.
8D\	.	8f#\J	.	16dd\	.	16ff#\	.	.	.
.	.	.	.	16ee\JJ	.	16gg\JJ	.	.	.
=8	=8	=8	=8	=8	=8	=8	=8	=8	=8
!	!	!LO:TX:t=P:problem:mixed beam	!	!	!	!	!	!	!
8AA/L	.	8a\L	.	4cc#\	.	4ee\	.	.	.
8BB/	.	8A/	.	.	.	.	.	.	.
8C#/	.	8A/	.	8r	.	8r	.	.	.
8AA/J	.	8a\J	.	8cc#\	.	8ee\	.	.	.
=9	=9	=9	=9	=9	=9	=9	=9	=9	=9
!	!	!	!	!	!	!	!	!LO:N:vis=00	!
4D\	.	8f#\L	.	16dd\LL	.	16ff#\LL	.	0r	.
.	.	.	.	16cc#\	.	16ee\	.	.	.
.	.	8f#\J	.	16dd\	.	16ff#\	.	.	.
.	.	.	.	16ee\JJ	.	16gg\JJ	.	.	.
8r	.	8f#\L	.	16dd\LL	.	16ff#\LL	.	.	.
.	.	.	.	16ee\	.	16gg\	.	.	.
!LO:SIC:custos:v	!	!	!	!	!	!	!	!	!
!LO:TX:t=P:problem:custos jako wypełniacz kawałka pustej pięcilinii:global	!	!	!	!	!	!	!	!	!
8D\	.	8f#\J	.	16dd\	.	16ff#\	.	.	.
.	.	.	.	16ee\JJ	.	16gg\JJ	.	.	.
!LO:LB:g=original	!	!	!	!	!	!	!	!	!
=10	=10	=10	=10	=10	=10	=10	=10	=10	=10
!	!	!LO:TX:t=P:problem:mixed beam	!	!	!	!	!	!	!
4AA/	.	8a\L	.	16cc#\LL	.	16ee\LL	.	.	.
.	.	.	.	16b\	.	16dd\	.	.	.
.	.	8A/	.	16cc#\	.	16ee\	.	.	.
.	.	.	.	16dd\JJ	.	16ff#\JJ	.	.	.
8r	.	8A/	.	16cc#\LL	.	16ee\LL	.	.	.
.	.	.	.	16dd\	.	16ff#\	.	.	.
8AA/	.	8A/J	.	16cc#\	.	16ee\	.	.	.
!	!	!	!	!LO:SIC:custos:v	!	!	!	!	!
!	!	!	!	!LO:TX:t=P:problem:custos jako wypełniacz kawałka pustej pięcilinii:global	!	!	!	!	!
.	.	.	.	16dd\JJ	.	16ff#\JJ	.	.	.
!	!	!	!	!LO:LB:g=original	!	!LO:LB:g=original	!	!	!
=11	=11	=11	=11	=11	=11	=11	=11	=11	=11
8BB/	7	8b\L	.	16b\LL	.	16dd\LL	.	.	.
.	.	.	.	16a\	.	16cc#\	.	.	.
8r	.	8a\	.	16b\	.	16dd\	.	.	.
.	.	.	.	16cc#\JJ	.	16ee\JJ	.	.	.
8BB/	6	8a\	.	16b\LL	.	16dd\LL	.	.	.
.	.	.	.	16cc#\	.	16ee\	.	.	.
8r	.	8g#X\J	.	16b\	.	16dd\	.	.	.
.	.	.	.	16cc#\JJ	.	16ee\JJ	.	.	.
=12	=12	=12	=12	=12	=12	=12	=12	=12	=12
4.AA/	.	4.a\	.	8a/L	.	4.cc#\	.	.	.
.	.	.	.	8a/	.	.	.	.	.
.	.	.	.	8a/	.	.	.	.	.
!	!	!LO:SIC:custos:v	!	!	!	!	!	!	!
!	!	!LO:TX:t=P:problem:custos jako wypełniacz kawałka pustej pięcilinii:global	!	!	!	!	!	!	!
8D\	6 5	8f#\	.	8a/J	.	16cc#\LL	.	.	.
.	.	.	.	.	.	16dd\JJ	.	.	.
!	!	!LO:LB:g=original	!	!	!	!	!	!	!
=13	=13	=13	=13	=13	=13	=13	=13	=13	=13
!	!	!	!	!	!	!	!	!LO:N:vis=00	!
8E\L	#	8g#X\L	.	8b\L	.	8ee\L	.	0r	.
8D\J	6 5	8a\	.	16cc#\L	.	16ff#\L	.	.	.
.	.	.	.	16dd\JJ	.	16b\JJ	.	.	.
!LO:TX:t=P:problem:mixed beam	!	!	!	!	!	!	!	!	!
8E\L	.	8.a\	.	8.b\L	.	8cc#\L	.	.	.
8EE/J	.	.	.	.	.	16b\L	.	.	.
.	.	16g#X\Jk	.	16b\Jk	.	16a\JJ	.	.	.
=14	=14	=14	=14	=14	=14	=14	=14	=14	=14
8AA/L	.	4.a\	.	4.cc#\	.	4.a/	.	.	.
8BB/	.	.	.	.	.	.	.	.	.
8C#/	.	.	.	.	.	.	.	.	.
8AA/J	.	8a\	.	8cc#\	.	8ee\	.	.	.
=15	=15	=15	=15	=15	=15	=15	=15	=15	=15
!	!	!LO:TX:t=P:problem:mixed beam	!	!	!	!	!	!	!
8D\L	.	8a\L	.	16dd\LL	.	16ff#\LL	.	.	.
.	.	.	.	16cc#\	.	16ee\	.	.	.
8E\	.	8A/	.	16dd\	.	16ff#\	.	.	.
.	.	.	.	16ee\JJ	.	16gg\JJ	.	.	.
8F#\	6	8A/	.	16dd\LL	.	16ff#\LL	.	.	.
.	.	.	.	16ff#\	.	16aa\	.	.	.
8D\J	.	8A/J	.	16ee\	.	16gg\	.	.	.
.	.	.	.	16dd\JJ	.	16ff#\JJ	.	.	.
=16	=16	=16	=16	=16	=16	=16	=16	=16	=16
!	!	!LO:TX:t=P:problem:mixed beam	!	!	!	!	!	!	!
8AA/L	.	8A/L	.	16cc#\LL	.	16ee\LL	.	.	.
.	.	.	.	16b\	.	16dd\	.	.	.
8BB/	.	8a\	.	16cc#\	.	16ee\	.	.	.
.	.	.	.	16dd\JJ	.	16ff#\JJ	.	.	.
8C#/	.	8a\	.	16cc#\LL	.	16ee\LL	.	.	.
.	.	.	.	16cc#\	.	16ee\	.	.	.
8AA/J	.	8a\J	.	16cc#\	.	16ee\	.	.	.
.	.	.	.	16cc#\JJ	.	16ee\JJ	.	.	.
=17	=17	=17	=17	=17	=17	=17	=17	=17	=17
!	!	!LO:TX:t=P:problem:mixed beam	!	!	!	!	!	!LO:N:vis=00	!
8D\L	.	8a\L	.	16dd\LL	.	16ff#\LL	.	0r	.
.	.	.	.	16cc#\	.	16ee\	.	.	.
8E\	.	8A/	.	16dd\	.	16ff#\	.	.	.
.	.	.	.	16ee\JJ	.	16gg\JJ	.	.	.
8F#\	.	8A/	.	16dd\LL	.	16ff#\LL	.	.	.
.	.	.	.	16ff#\	.	16aa\	.	.	.
8D\J	.	8A/J	.	16ee\	.	16gg\	.	.	.
.	.	.	.	16dd\JJ	.	16ff#\JJ	.	.	.
=18	=18	=18	=18	=18	=18	=18	=18	=18	=18
!	!	!LO:TX:t=P:problem:mixed beam	!	!	!	!	!	!	!
8AA/L	.	8a\L	.	16cc#\LL	.	8ee\L	.	.	.
.	.	.	.	16cc#\	.	.	.	.	.
8AA/	.	8A/	.	16cc#\	.	16ee\L	.	.	.
.	.	.	.	16dd\JJ	.	16ee\JJ	.	.	.
8AA/	.	8A/	.	16cc#\LL	.	8ee\L	.	.	.
.	.	.	.	16cc#\	.	.	.	.	.
!LO:SIC:custos:v	!	!	!	!	!	!	!	!	!
8D/J	.	8a\J	.	16cc#\	.	8ff#\J	.	.	.
.	.	.	.	16dd\JJ	.	.	.	.	.
!LO:LB:g=original	!	!	!	!	!	!	!	!	!
=19	=19	=19	=19	=19	=19	=19	=19	=19	=19
4.C#\	6 5	4.a\	.	4.ee\	.	4.gg\	.	.	.
8C#\	.	8a\	.	8ee\	.	8gg\	.	.	.
=20	=20	=20	=20	=20	=20	=20	=20	=20	=20
!LO:TX:t=P:problem:mixed beam	!	!	!	!	!	!	!	!	!
8D\L	.	8e\L	.	8.dd\L	.	8.ff#\L	.	.	.
8G\	6 5	8f#\	.	.	.	.	.	.	.
.	.	.	.	16ee\Jk	.	16ee\Jk	.	.	.
!	!	!	!	!	!	!LO:LB:g=original	!	!	!
8A\	.	8.e\	.	8.b\L	.	8.ee\L	.	.	.
8AA/J	.	.	.	.	.	.	.	.	.
.	.	16f#\Jk	.	16dd\Jk	.	16dd\Jk	.	.	.
!	!	!	!	!LO:LB:g=original	!	!	!	!	!
=21	=21	=21	=21	=21	=21	=21	=21	=21	=21
!LO:TX:t=P:problem:mixed beam	!	!	!	!	!	!	!	!	!
8D\L	.	8f#\L	.	8dd\L	.	8dd\L	.	2r	.
8G\	.	8g\	.	8dd\	.	16ee\L	.	.	.
.	.	.	.	.	.	16ff#\JJ	.	.	.
!	!	!	!	!LO:TX:b:t= roy	!	!	!	!	!
8A\	.	8e\	.	8.ee\	.	8a/L	.	.	.
8AA/J	.	8g\J	.	.	.	8cc#/J	.	.	.
.	.	.	.	16ee\Jk	.	.	.	.	.
=22	=22	=22	=22	=22	=22	=22	=22	=22	=22
4.D\	.	4.f#\	.	4.ff#\	.	4.dd\	.	4r	.
.	.	.	.	.	.	.	.	8r	.
8r	.	8e\	.	8cc#\	.	8a/	.	8a\	huc
=23	=23	=23	=23	=23	=23	=23	=23	=23	=23
!LO:N:vis=00	!	!	!	!	!	!	!LO:DY:b:t=piano	!	!
0r	.	4f#\	.	4a/	.	4dd\	p	4dd\	huc
.	.	8r	.	8r	.	8r	.	8r	.
.	.	8a\	.	8a/	.	8a/	.	8cc#\	Ma-
=24	=24	=24	=24	=24	=24	=24	=24	=24	=24
!	!	!	!	!	!LO:DY:b:t=piano	!	!	!	!
.	.	8f#\L	.	8dd\L	p	8dd\L	.	8dd\	-ria-
.	.	8f#\	.	8cc#\	.	8ee\	.	8ee\	.
.	.	8f#\	.	8dd\	.	8ff#\	.	(8ff#\L	.
.	.	8f#\J	.	8ee\J	.	8gg\J	.	8gg\J)	.
=25	=25	=25	=25	=25	=25	=25	=25	=25	=25
.	.	4a\	.	4cc#\	.	4ee\	.	4ee\	-ni
.	.	8r	.	8r	.	8r	.	8r	.
!	!	!LO:SIC:custos:v	!	!	!	!	!	!	!
.	.	8A/	.	8cc#\	.	8ee\	.	8ee\	huc
!	!	!LO:LB:g=original	!	!	!	!	!	!	!
=26	=26	=26	=26	=26	=26	=26	=26	=26	=26
.	.	8d\L	.	8dd\L	.	8ff#\L	.	8ff#\	a-
.	.	8e\	.	8cc#\	.	8ee\	.	8ee\	-ma-
!	!	!	!	!	!	!	!	!LO:TX:a:t=d	!
.	.	8B\	.	8b\	.	8dd\	.	(8.dd\L	-to-
.	.	8B\J	.	8cc#\J	.	8ee\J	.	.	.
.	.	.	.	.	.	.	.	16ee\Jk)	.
=27	=27	=27	=27	=27	=27	=27	=27	=27	=27
!LO:N:vis=00	!	!LO:TX:t=P:problem:mixed beam	!	!	!	!	!	!	!
0r	.	8A/L	.	4a/	.	4.cc#\	.	4.cc#\	-res
.	.	16a\L	.	.	.	.	.	.	.
.	.	16g\JJ	.	.	.	.	.	.	.
.	.	8a\L	.	8r	.	.	.	.	.
.	.	8a\J	.	8a/	.	8a/	.	8a\	huc
=28	=28	=28	=28	=28	=28	=28	=28	=28	=28
.	.	4f#\	.	4a/	.	4dd\	.	4dd\	huc
.	.	8r	.	8r	.	8r	.	8r	.
!	!	!	!	!	!	!	!	!LO:LB:g=original	!
.	.	8a\	.	8a/	.	8cc#\	.	8cc#\	huc
=29	=29	=29	=29	=29	=29	=29	=29	=29	=29
.	.	8f#\L	.	8dd\L	.	8dd\L	.	8dd\	Ma-
.	.	8f#\	.	8cc#\	.	8ee\	.	8ee\	-ri-
.	.	8f#\	.	8dd\	.	8ff#\	.	(8ff#\L	-a-
.	.	8f#\J	.	8ee\J	.	8gg\J	.	8gg\J)	.
=30	=30	=30	=30	=30	=30	=30	=30	=30	=30
.	.	4a\	.	4cc#\	.	4ee\	.	4ee\	-ni
.	.	8r	.	8r	.	8r	.	8r	.
.	.	8A/	.	8cc#\	.	8ee\	.	8ee\	huc
=31	=31	=31	=31	=31	=31	=31	=31	=31	=31
!LO:N:vis=00	!	!	!	!	!	!	!	!	!
0r	.	8d\L	.	8dd\L	.	8ff#\L	.	8ff#\	a-
.	.	8e\	.	8cc#\	.	8ee\	.	8ee\	-ma-
.	.	8B\	.	8b\	.	8dd\	.	(8dd\L	-to-
.	.	8B\J	.	8cc#\J	.	8ee\J	.	8ee\J)	.
!	!	!	!	!	!	!LO:LB:g=original	!	!	!
=32	=32	=32	=32	=32	=32	=32	=32	=32	=32
.	.	4.A/	.	4.a/	.	4.cc#\	.	4.cc#\	-res
.	.	8a\	.	8cc#\	.	8ee\	.	8ee\	fer-
=33	=33	=33	=33	=33	=33	=33	=33	=33	=33
!	!	!	!	!LO:TX:a:t=bis	!	!	!	!	!
!	!	!	!	!LO:TX:a:t=P:problem: takty 33-34 zapisane repetycją	!	!	!	!LO:TX:a:t=P:problem: klamra łukowa - przedłużenie sylaby	!
.	.	8g#X\L	.	8cc#\L	.	8.ee\L	.	8ee\	.
.	.	8a\	.	8cc#\J	.	.	.	8ee\	-te
!	!	!	!	!	!	!	!LO:DY:b:t=forte	!	!
.	.	.	.	.	.	16ee\Jk	f	.	.
.	.	8g#\	.	8cc#\L	.	8ee\L	.	8ee\	no-
.	.	8a\J	.	16b\L	.	16dd\L	.	(16dd\LL	-vos
!	!	!	!	!LO:SIC:custos:v	!	!	!	!	!
.	.	.	.	16a\JJ	.	16cc#\JJ	.	16cc#\JJ)	.
!	!	!	!	!LO:LB:g=original	!	!	!	!	!
=34	=34	=34	=34	=34	=34	=34	=34	=34	=34
.	.	8e\L	.	8.a/L	.	8.b/L	.	(8.b\L	flo-
.	.	8e\	.	.	.	.	.	.	.
!	!	!	!	!LO:TX:b:t=♯	!	!	!	!	!
.	.	.	.	16g#y/Jk	.	16a/Jk	.	16a\Jk)	.
.	.	8A\	.	8a\L	.	8a\L	.	8a\	-res
.	.	8a\J	.	8cc#\J	.	8ee\J	.	8ee\	fer-
=35	=35	=35	=35	=35	=35	=35	=35	=35	=35
!LO:N:vis=0	!	!	!	!LO:TX:a:t=P:problem: takty 35-36 powtórzone repetycją	!	!	!	!	!
2r	.	8g#X\L	.	8cc#\Lyy	.	8ee\L	.	8ee\	-te
!	!	!	!	!	!	!	!	!LO:TX:a:t=P:problem: brak nuty/pauzy/zła wartość rytm.	!
!	!	!	!	!	!	!	!	!LO:LB:g=original	!
.	.	8a\	.	8cc#\Jyy	.	8ee\J	.	8ee\yy	.
.	.	8g#\	.	8cc#\Lyy	.	8ee\L	.	8ee\	no-
.	.	8a\J	.	16b\Lyy	.	16dd\L	.	(16dd\LL	-vos
.	.	.	.	16a\JJyy	.	16cc#\JJ	.	16cc#\JJ)	.
=36	=36	=36	=36	=36	=36	=36	=36	=36	=36
.	.	8e\L	.	8.a/Lyy	.	8.b/L	.	8.b\L	flo-
.	.	8e\	.	.	.	.	.	.	.
.	.	.	.	16g#X/Jkyy	.	16a/Jk	.	16a\Jk	.
.	.	8A\	.	8a\Lyy	.	8a\L	.	8a\	-res
.	.	8e\J	.	8cc#\Jyy	.	8ee\J	.	8r	.
=37	=37	=37	=37	=37	=37	=37	=37	=37	=37
!	!	!	!	!	!	!	!	!LO:N:vis=00	!
4r	.	4f#\	.	4a/	.	4dd\	.	0r	.
8r	.	8r	.	8r	.	8r	.	.	.
!	!	!LO:SIC:custos:v	!	!	!	!	!	!	!
8AA/	.	8a\	.	8a/	.	8cc#\	.	.	.
!	!	!LO:LB:g=original	!	!	!	!	!	!	!
=38	=38	=38	=38	=38	=38	=38	=38	=38	=38
4D\	.	8f#\L	.	8dd\L	.	8dd\L	.	.	.
.	.	8f#\	.	8cc#\	.	8ee\	.	.	.
8r	.	8f#\	.	8dd\	.	8ff#\	.	.	.
8G\	.	8f#\J	.	8ee\J	.	8gg\J	.	.	.
=39	=39	=39	=39	=39	=39	=39	=39	=39	=39
!LO:TX:t=P:problem:mixed beam	!	!	!	!	!	!	!	!	!
8A\L	.	8a\L	.	4.cc#\	.	4.ee\	.	.	.
16AA/L	.	8a\	.	.	.	.	.	.	.
16BB/JJ	.	.	.	.	.	.	.	.	.
8C#/L	.	8a\	.	.	.	.	.	.	.
8AA/J	.	8a\J	.	8cc#\	.	8ee\	.	.	.
=40	=40	=40	=40	=40	=40	=40	=40	=40	=40
8D\L	.	8A/L	.	8dd\L	.	8ff#\L	.	.	.
8C#\	6	8A/	.	8a\	.	8ee\	.	.	.
8BB\	7	8A/	.	8b\	.	8dd\	.	.	.
8BB\J	6|	8G#X/J	.	8cc#\J	.	8ee\J	.	.	.
=41	=41	=41	=41	=41	=41	=41	=41	=41	=41
!	!	!	!	!	!	!	!	!LO:N:vis=00	!
8AA/L	.	4.A/	.	4.a/	.	4.cc#\	.	0r	.
16AA/L	.	.	.	.	.	.	.	.	.
!LO:TX:a:t=P:problem: custos jako podział taktu	!	!	!	!	!	!	!	!	!
!LO:SIC:custos:v	!	!	!	!	!	!	!	!	!
16BB/JJ	.	.	.	.	.	.	.	.	.
!LO:LB:g=original	!	!	!	!	!	!	!	!	!
8C#/L	.	.	.	.	.	.	.	.	.
8AA/J	.	8e\	.	8ee\	.	8a/	.	.	.
=42	=42	=42	=42	=42	=42	=42	=42	=42	=42
!	!	!	!	!	!	!LO:TX:a:t=P:problem:nieczytelna korekta wartości rytm.	!	!	!
4r	.	4f#\	.	4a/	.	4dd\	.	.	.
8r	.	8r	.	8r	.	8r	.	.	.
!	!	!	!	!	!	!LO:SIC:custos:v	!	!	!
8AA/	.	8a\	.	8ee\	.	8cc#\	.	.	.
!	!	!	!	!	!	!LO:LB:g=original	!	!	!
=43	=43	=43	=43	=43	=43	=43	=43	=43	=43
4D\	.	8f#\L	.	8dd\L	.	8dd\L	.	.	.
.	.	8f#\	.	8cc#\	.	8ee\	.	.	.
8r	.	8f#\	.	8dd\	.	8ff#\	.	.	.
8G\	.	8f#\J	.	8ee\J	.	8gg\J	.	.	.
=44	=44	=44	=44	=44	=44	=44	=44	=44	=44
!LO:TX:t=P:problem:mixed beam	!	!LO:TX:t=P:problem:mixed beam	!	!	!	!	!	!	!
8A\L	.	8a\L	.	4cc#\	.	4ee\	.	.	.
16AA/L	.	8a\	.	.	.	.	.	.	.
16BB/JJ	.	.	.	.	.	.	.	.	.
8C#/L	6	8a\	.	8r	.	8r	.	.	.
8AA/J	.	8A/J	.	8cc#\	.	8ee\	.	.	.
=45	=45	=45	=45	=45	=45	=45	=45	=45	=45
!	!	!	!	!	!	!	!	!LO:N:vis=00	!
8D\L	.	8A/L	.	8dd\L	.	8ff#\L	.	0r	.
8C#\	6	8A/	.	8ee\	.	8ee\	.	.	.
8BB\	7	8A/	.	8b\	.	8dd\	.	.	.
8BB\J	6|	8G#X/J	.	8b\J	.	8ee\J	.	.	.
=46	=46	=46	=46	=46	=46	=46	=46	=46	=46
4.AA/	.	4.A/	.	4.a/	.	4.cc#\	.	.	.
8E\	#	8B/	.	8g#X/	.	8b\	.	.	.
=47	=47	=47	=47	=47	=47	=47	=47	=47	=47
8AA/	.	8A/L	.	16a/LL	.	16cc#\LL	.	.	.
.	.	.	.	16cc#/	.	16ee\	.	.	.
8r	.	8A/	.	16g#X/	.	16b\	.	.	.
.	.	.	.	16b/JJ	.	16dd\JJ	.	.	.
8AA/	.	8A/	.	16a/LL	.	16cc#\LL	.	.	.
.	.	.	.	16cc#/	.	16ee\	.	.	.
8r	.	8A/J	.	16g#/	.	16b\	.	.	.
!	!	!	!	!	!	!LO:TX:a:t=d	!	!	!
.	.	.	.	16b/JJ	.	16dd\JJ	.	.	.
=48	=48	=48	=48	=48	=48	=48	=48	=48	=48
8A\L	.	8e\L	.	8a\L	.	8cc#\L	.	.	.
8E\	#	8e\	.	8a\	.	8b\	.	.	.
8E\	.	8e\	.	8a\	.	8b\	.	.	.
!	!	!	!	!LO:SIC:custos:v	!	!	!	!	!
8E\J	.	8e\J	.	8cc#\J	.	8b\J	.	.	.
!	!	!	!	!LO:LB:g=original	!	!	!	!	!
=49	=49	=49	=49	=49	=49	=49	=49	=49	=49
!	!	!	!	!	!	!	!	!LO:N:vis=0	!
8AA/	.	8e\L	.	16a/LL	.	16cc#\LL	.	1r	.
.	.	.	.	16cc#/	.	16ee\	.	.	.
8r	.	8e\	.	16g#X/	.	16b\	.	.	.
.	.	.	.	16b/JJ	.	16dd\JJ	.	.	.
8AA/	.	8e\	.	16a\LL	.	16cc#\LL	.	.	.
.	.	.	.	16cc#\	.	16ee\	.	.	.
!LO:SIC:custos:v	!	!	!	!	!	!	!	!	!
8r	.	8e\J	.	16g#X\	.	16b\	.	.	.
.	.	.	.	16b\JJ	.	16dd\JJ	.	.	.
!LO:LB:g=original	!	!	!	!	!	!	!	!	!
=50	=50	=50	=50	=50	=50	=50	=50	=50	=50
8A\L	.	8e\L	.	8a/L	.	8cc#\L	.	.	.
8E\	#	8e\	.	8g#X/	.	8b\	.	.	.
8E\	.	8e\	.	8g#/	.	8b\	.	.	.
8A\J	.	8e\J	.	8cc#/J	.	8ee\J	.	.	.
=51	=51	=51	=51	=51	=51	=51	=51	=51	=51
!LO:TX:t=P:problem:mixed beam	!	!	!	!	!	!	!	!	!
8G#X\L	6 5	8e\L	.	8cc#\L	.	8ee\L	.	2r	.
8A\	.	8f#\	.	16b\L	.	16a\L	.	.	.
.	.	.	.	16a\JJ	.	16b\JJ	.	.	.
8E\	4	8e\	.	8b\L	.	8e/L	.	.	.
.	3	.	.	.	.	.	.	.	.
8EE/J	.	8e\J	.	8b\J	.	8g#X/J	.	.	.
!	!	!LO:LB:g=original	!	!	!	!	!	!	!
=52	=52	=52	=52	=52	=52	=52	=52	=52	=52
4.AA/	.	4.e\	.	4.cc#\	.	4.a/	.	4r	.
.	.	.	.	.	.	.	.	8r	.
8r	.	8a\	.	8cc#\	.	8ee\	.	8ee\	Ma-
=53	=53	=53	=53	=53	=53	=53	=53	=53	=53
!LO:N:vis=00	!	!	!	!	!	!	!	!	!
0r	.	8g#X\L	.	8cc#\L	.	8ee\L	.	8ee\	-ri-
.	.	8a\	.	8cc#\J	.	8ee\J	.	8ee\	-a
.	.	8g#\	.	8cc#\L	.	8ee\L	.	8ee\	pul-
.	.	8a\J	.	16b\L	.	16dd\L	.	(16dd\LL	-chra
.	.	.	.	16a\JJ	.	16cc#\JJ	.	16cc#\JJ)	.
!	!	!	!	!	!	!LO:LB:g=original	!	!	!
=54	=54	=54	=54	=54	=54	=54	=54	=54	=54
!	!	!	!	!	!	!LO:TX:t=P:problem:mixed beam	!	!	!
.	.	8e\L	.	8a/L	.	8.b/L	.	8.b\	fa-
.	.	8e\	.	8g#X/	.	.	.	.	.
.	.	.	.	.	.	16a/K	.	16a\	-ci-
.	.	8A\	.	8a/	.	8a/	.	8a\	-e
!	!	!	!	!	!	!	!	!LO:SIC:custos [jako wypełniacz kawałka pustej pięcilinii]:global	!
.	.	8a\J	.	8a/J	.	8ee\J	.	8ee\	Ma-
!	!	!	!	!	!	!	!	!LO:LB:g=original	!
=55	=55	=55	=55	=55	=55	=55	=55	=55	=55
.	.	8g#X\L	.	8cc#\L	.	8ee\L	.	8ee\	-ter
.	.	8a\	.	8cc#\J	.	8ee\J	.	8ee\	di-
.	.	8g#\	.	8cc#\L	.	8ee\L	.	8ee\	-vi-
.	.	8a\J	.	16b\L	.	16dd\L	.	(16dd\LL	-nae
.	.	.	.	16a\JJ	.	16cc#\JJ	.	16cc#\JJ)	.
=56	=56	=56	=56	=56	=56	=56	=56	=56	=56
!	!	!LO:TX:t=P:problem:mixed beam	!	!	!	!	!	!	!
.	.	8e\L	.	8a/L	.	8.b/L	.	8.b\	gra-
.	.	8e\	.	8g#X/	.	.	.	.	.
.	.	.	.	.	.	16a/K	.	16a\	-ti-
.	.	8A/	.	8a/	.	8a/	.	8a\	-ae
.	.	8d/J	.	8a/J	.	8dd/J	.	8dd\	Ma-
=57	=57	=57	=57	=57	=57	=57	=57	=57	=57
!LO:N:vis=00	!	!	!	!	!	!	!	!	!
2r	.	8c#\L	.	8cc#\L	.	8ee\L	.	8ee\	-ter
!	!	!	!	!	!	!	!	!LO:N:vis=8.	!
.	.	8B\	.	8cc#\J	.	8ee\J	.	8ee\	di-
.	.	8c#\	.	16cc#\LL	.	(16ee\LL	.	(16ee\LL	-vi-
.	.	.	.	16dd\	.	16ff#\	.	16ff#\JJ)	.
.	.	8A\J	.	16b\	.	16dd\	.	(16dd\LL	-nae
.	.	.	.	16cc#\JJ	.	16ee\JJ)	.	16ee\JJ)	.
=58	=58	=58	=58	=58	=58	=58	=58	=58	=58
.	.	8d\L	.	8.dd\L	.	8.ff#\L	.	8.ff#\	gra-
.	.	8e\	.	.	.	.	.	.	.
.	.	.	.	16dd\K	.	16ff#\K	.	16ff#\	-ti-
.	.	8f#\	.	8dd\	.	8ff#\	.	8ff#\	-ae
.	.	8g\J	.	8cc#\J	.	8ee\J	.	8ee\	dat
=59	=59	=59	=59	=59	=59	=59	=59	=59	=59
.	.	8d\L	.	8dd\L	.	8ff#\L	.	8ff#\	dat
!	!	!	!	!	!	!	!	!LO:LB:g=original	!
.	.	8a\	.	8cc#\	.	8ee\	.	8r	.
.	.	8d\	.	8dd\	.	8ff#\	.	8r	.
!	!	!	!	!LO:SIC:custos:v	!	!	!	!	!
.	.	8A\J	.	8cc#\J	.	8ee\J	.	8ee\	dat
!	!	!	!	!LO:LB:g=original	!	!	!	!	!
=60	=60	=60	=60	=60	=60	=60	=60	=60	=60
.	.	8d\L	.	8dd\L	.	8ff#\L	.	8ff#\	dat
.	.	8a\	.	8cc#\	.	8ee\	.	8r	.
.	.	8d\	.	8dd\	.	8ff#\	.	8r	.
.	.	8a\J	.	8cc#\J	.	8ee\J	.	8ee\	sua-
=61	=61	=61	=61	=61	=61	=61	=61	=61	=61
!LO:N:vis=00	!	!LO:TX:t=P:problem:mixed beam	!	!	!	!	!	!LO:N:vis=4	!
0r	.	8d\L	.	8dd\L	.	8ff#\L	.	8ff#\	-ves
.	.	8g\	.	16ee\L	.	16gg\L	.	(16gg\L	o-
.	.	.	.	16dd\JJ	.	16ff#\JJ	.	16ff#\J)	.
.	.	8a\	.	8.a/L	.	8.ee\L	.	(8.ee\L	-do-
.	.	8A/J	.	.	.	.	.	.	.
.	.	.	.	16a/Jk	.	16dd\Jk	.	16dd\Jk)	.
=62	=62	=62	=62	=62	=62	=62	=62	=62	=62
.	.	4d\	.	8f#/L	.	8dd\L	.	8dd\	-res
.	.	.	.	8f#/	.	8a\	.	8a\	Ma-
.	.	4r	.	8g/	.	8b\	.	8b\	-ter
.	.	.	.	8a/J	.	8cc#\J	.	8cc#\	di-
=63	=63	=63	=63	=63	=63	=63	=63	=63	=63
.	.	2r	.	8b\L	.	8.dd\L	.	8.dd\	-vi-
.	.	.	.	8a\	.	.	.	.	.
!	!	!	!	!	!	!	!	!LO:TX:a:t=e	!
.	.	.	.	.	.	16dd\K	.	16ee\	-nae
.	.	.	.	8b\	.	8dd\	.	8dd\	gra-
!	!	!	!	!	!	!	!	!LO:SIC:custos:v	!
.	.	.	.	8cc#\J	.	8ee\J	.	8ee\	-ti-
!	!	!	!	!	!	!	!	!LO:LB:g=original	!
=64	=64	=64	=64	=64	=64	=64	=64	=64	=64
.	.	4.d\	.	4.dd\	.	4.ff#\	.	4.ff#\	-ae
!	!	!	!	!	!	!LO:SIC:custos:v	!	!	!
.	.	8a\	.	8cc#\	.	8ee\	.	8ee\	dat
!	!	!	!	!	!	!LO:LB:g=original	!	!	!
=65	=65	=65	=65	=65	=65	=65	=65	=65	=65
!LO:N:vis=0	!	!	!	!	!	!	!	!	!
1r	.	8d\L	.	8dd\L	.	8ff#\L	.	8ff#\	dat
.	.	8A\	.	8cc#\	.	8ee\	.	8r	.
.	.	8d\	.	8dd\	.	8ff#\	.	8r	.
!	!	!LO:SIC:custos:v	!	!	!	!LO:TX:a:t=P:problem: korekta dźwięku nad pięciolinią	!	!	!
.	.	8a\J	.	8cc#\J	.	8gg\J	.	8ee\	dat
!	!	!LO:LB:g=original	!	!	!	!	!	!	!
=66	=66	=66	=66	=66	=66	=66	=66	=66	=66
!	!	!	!	!LO:TX:a:t=bis	!	!	!	!	!
!	!	!	!	!LO:TX:a:t=P:problem: takt 66 zapisany repetycją	!	!	!	!	!
.	.	8d\L	.	8dd\L	.	8ff#\L	.	8ff#\	dat
.	.	8A\	.	16cc#\L	.	8ee\	.	8r	.
.	.	.	.	16dd\JJ	.	.	.	.	.
.	.	8d\	.	8.a/L	.	8ff#\	.	8r	.
.	.	8A\J	.	.	.	8gg\J	.	8gg\	Sua-
.	.	.	.	16a/Jk	.	.	.	.	.
=67	=67	=67	=67	=67	=67	=67	=67	=67	=67
!	!	!LO:TX:t=P:problem:mixed beam	!	!LO:TX:a:t=P:problem: takt 67 powtórzony repetycją	!	!	!	!	!
2r	.	8d\L	.	8dd\Lyy	.	16ff#\LL	.	(16ff#\LL	-ves
.	.	.	.	.	.	16ee\	.	16ee\JJ)	.
.	.	8g\	.	16cc#\Lyy	.	16dd\	.	(16dd\LL	o-
.	.	.	.	16dd\JJyy	.	16ee\JJ	.	16ee\JJ)	.
.	.	8a\	.	8.a/Lyy	.	8ff#\L	.	8ff#\L	-do-
.	.	8A/J	.	.	.	16ee\L	.	(16ee\L	.
.	.	.	.	16a/Jkyy	.	16dd\JJ	.	16dd\JJ)	.
=68	=68	=68	=68	=68	=68	=68	=68	=68	=68
4.D\	.	4.d\	.	4f#/	.	4.dd\	.	4.dd\	-res
.	.	.	.	8r	.	.	.	.	.
8r	.	8f#\	.	8a/	.	8a/	.	8r	.
=69	=69	=69	=69	=69	=69	=69	=69	=69	=69
!	!	!	!	!	!	!	!	!LO:N:vis=00	!
4r	.	4f#\	.	4f#/	.	4dd\	.	0r	.
8r	.	8r	.	8r	.	8r	.	.	.
8AA/	.	8a\	.	8a/	.	8cc#\	.	.	.
=70	=70	=70	=70	=70	=70	=70	=70	=70	=70
4D\	.	8f#\L	.	8b\L	.	8dd\L	.	.	.
.	.	8f#\	.	8cc#\	.	8ee\	.	.	.
8r	.	8f#\	.	8dd\	.	8ff#\	.	.	.
8G\	6 5	8f#\J	.	8ee\J	.	8gg\J	.	.	.
=71	=71	=71	=71	=71	=71	=71	=71	=71	=71
!LO:TX:t=P:problem:mixed beam	!	!LO:TX:t=P:problem:mixed beam	!	!	!	!	!	!	!
8A\L	.	8a\L	.	8.cc#\L	.	4.ee\	.	.	.
16AA/L	.	8A/	.	.	.	.	.	.	.
16BB/JJ	.	.	.	16cc#\K	.	.	.	.	.
8C#/L	6	8A/	.	8cc#\	.	.	.	.	.
8AA/J	.	8A/J	.	8cc#\J	.	8ee\	.	.	.
=72	=72	=72	=72	=72	=72	=72	=72	=72	=72
8D\L	.	8A/L	.	8dd\L	.	8ff#\L	.	.	.
8C#\	6	8A/	.	8a\	.	8ee\	.	.	.
8BB\	7	8A/	.	8b\	.	8dd\	.	.	.
!	!	!	!	!LO:SIC:custos:v	!	!	!	!	!
8BB\J	6|	8G#X/J	.	8b\J	.	8ee\J	.	.	.
!	!	!	!	!LO:LB:g=original	!	!	!	!	!
=73	=73	=73	=73	=73	=73	=73	=73	=73	=73
!	!	!	!	!	!	!	!	!LO:N:vis=00	!
8AA/L	.	8A\L	.	4.cc#\	.	4.cc#\	.	0r	.
8BB/	.	8e\	.	.	.	.	.	.	.
8C#/	6	8e\	.	.	.	.	.	.	.
8AA/J	.	8c#\J	.	8cc#\	.	8ee\	.	.	.
!LO:LB:g=original	!	!	!	!	!	!	!	!	!
=74	=74	=74	=74	=74	=74	=74	=74	=74	=74
!	!	!LO:TX:t=P:problem:mixed beam	!	!	!	!	!	!	!
4D\	.	8a\L	.	16dd\LL	.	16ff#\LL	.	.	.
.	.	.	.	16cc#\	.	16ee\	.	.	.
.	.	8A/	.	16dd\	.	16ff#\	.	.	.
.	.	.	.	16ee\JJ	.	16gg\JJ	.	.	.
8r	.	8A/	.	16dd\LL	.	16ff#\LL	.	.	.
.	.	.	.	16ee\	.	16gg\	.	.	.
8D\	.	8a\J	.	16dd\	.	16ff#\	.	.	.
.	.	.	.	16ee\JJ	.	16gg\JJ	.	.	.
=75	=75	=75	=75	=75	=75	=75	=75	=75	=75
8AA/L	.	8f#\L	.	4cc#\	.	4ee\	.	.	.
8BB/	.	8f#\	.	.	.	.	.	.	.
8C#/	6	8f#\	.	8r	.	8r	.	.	.
8AA/J	.	8f#\J	.	8cc#\	.	8ee\	.	.	.
=76	=76	=76	=76	=76	=76	=76	=76	=76	=76
!	!	!LO:TX:t=P:problem:mixed beam	!	!	!	!	!	!	!
4D\	.	8a\L	.	16dd\LL	.	16ff#\LL	.	.	.
.	.	.	.	16cc#\	.	16gg\	.	.	.
.	.	8A/	.	16dd\	.	16ff#\	.	.	.
.	.	.	.	16ee\JJ	.	16gg\JJ	.	.	.
8r	.	8A/	.	16dd\LL	.	16ff#\LL	.	.	.
.	.	.	.	16ee\	.	16gg\	.	.	.
8AA/	.	8A/J	.	16dd\	.	16ff#\	.	.	.
!	!	!	!	!	!	!LO:SIC:custos:v	!	!	!
.	.	.	.	16ee\JJ	.	16gg\JJ	.	.	.
!	!	!	!	!	!	!LO:LB:g=original	!	!	!
=77	=77	=77	=77	=77	=77	=77	=77	=77	=77
!LO:TX:a:t=P:problem: 1 brakujący takt [por. t.10]	!	!	!	!	!	!	!	!LO:N:vis=00	!
4AA/yy	.	8a\L	.	16cc#\LL	.	16ee\LL	.	0r	.
.	.	.	.	16b\	.	16dd\	.	.	.
.	.	8a\	.	16cc#\	.	16ee\	.	.	.
.	.	.	.	16dd\JJ	.	16ff#\JJ	.	.	.
8ryy	.	8a\	.	16cc#\LL	.	16ee\LL	.	.	.
.	.	.	.	16dd\	.	16ff#\	.	.	.
8AA/yy	.	8g#X\J	.	16cc#\	.	16ee\	.	.	.
.	.	.	.	16dd\JJ	.	16ff#\JJ	.	.	.
=78	=78	=78	=78	=78	=78	=78	=78	=78	=78
4BB/	7	4.a\	.	16b\LL	.	16dd\LL	.	.	.
.	.	.	.	16a\	.	16cc#\	.	.	.
.	.	.	.	16b\	.	16dd\	.	.	.
.	.	.	.	16cc#\JJ	.	16ee\JJ	.	.	.
8r	.	.	.	16b\LL	.	16dd\LL	.	.	.
.	.	.	.	16cc#\	.	16ee\	.	.	.
8BB/	6|	8f#\	.	16b\	.	16dd\	.	.	.
.	.	.	.	16cc#\JJ	.	16ee\JJ	.	.	.
=79	=79	=79	=79	=79	=79	=79	=79	=79	=79
4.AA/	.	8g#X\	.	8cc#\L	.	4.cc#\	.	.	.
.	.	4a\	.	8a\	.	.	.	.	.
.	.	.	.	8a\	.	.	.	.	.
!	!	!LO:SIC:custos:v	!	!	!	!	!	!	!
8D\	6 5	8g#X\	.	8a\J	.	16cc#\LL	.	.	.
.	.	.	.	.	.	16dd\JJ	.	.	.
!	!	!LO:LB:g=original	!	!	!	!	!	!	!
=80	=80	=80	=80	=80	=80	=80	=80	=80	=80
!LO:TX:t=P:problem:mixed beam	!	!	!	!	!	!	!	!	!
8E\L	.	4.a\	.	8b\L	.	8ee\L	.	.	.
8D\	6 5	.	.	16cc#\L	.	16ff#\L	.	.	.
.	.	.	.	16dd\JJ	.	16b\JJ	.	.	.
8E\	.	.	.	8.b\L	.	8cc#\L	.	.	.
8EE/J	#	8a\	.	.	.	16b\L	.	.	.
.	.	.	.	16b\Jk	.	16a\JJ	.	.	.
=81	=81	=81	=81	=81	=81	=81	=81	=81	=81
!	!	!LO:TX:t=P:problem:mixed beam	!	!	!	!	!	!LO:N:vis=00	!
8AA/L	.	8a\L	.	4cc#\	.	4.a/	.	0r	.
8BB/	.	8A/	.	.	.	.	.	.	.
8C#/	.	8A/	.	8r	.	.	.	.	.
8AA/J	.	8A/J	.	8cc#\	.	8ee\	.	.	.
!	!	!	!	!LO:LB:g=original	!	!	!	!	!
=82	=82	=82	=82	=82	=82	=82	=82	=82	=82
!	!	!LO:TX:t=P:problem:mixed beam	!	!	!	!	!	!	!
8D\L	.	8A/L	.	16dd\LL	.	16ff#\LL	.	.	.
.	.	.	.	16cc#\	.	16ee\	.	.	.
8E\	.	8A/	.	16dd\	.	16ff#\	.	.	.
.	.	.	.	16ee\JJ	.	16gg\JJ	.	.	.
8F#\	6	8A/	.	16dd\LL	.	16ff#\LL	.	.	.
.	.	.	.	16ff#\	.	16aa\	.	.	.
8D\J	.	8a/J	.	16ee\	.	16gg\	.	.	.
.	.	.	.	16dd\JJ	.	16ff#\JJ	.	.	.
=83	=83	=83	=83	=83	=83	=83	=83	=83	=83
!	!	!LO:TX:t=P:problem:mixed beam	!	!	!	!	!	!	!
8AA/L	.	8a\L	.	16cc#\LL	.	16ee\LL	.	.	.
.	.	.	.	16b\	.	16dd\	.	.	.
8BB/	.	8A/	.	16cc#\	.	16ee\	.	.	.
.	.	.	.	16dd\JJ	.	16ff#\JJ	.	.	.
8C#/	6	8A/	.	8cc#\L	.	16ee\LL	.	.	.
.	.	.	.	.	.	16gg\	.	.	.
!LO:SIC:custos:v	!	!	!	!	!	!	!	!	!
8AA/J	.	8A/J	.	8cc#\J	.	16gg\	.	.	.
.	.	.	.	.	.	16ee\JJ	.	.	.
!LO:LB:g=original	!	!	!	!	!	!	!	!	!
=84	=84	=84	=84	=84	=84	=84	=84	=84	=84
!	!	!LO:TX:t=P:problem:mixed beam	!	!	!	!	!	!	!
8D\L	.	8a\L	.	16dd\LL	.	16ff#\LL	.	.	.
.	.	.	.	16cc#\	.	16ee\	.	.	.
8E\	.	8A/	.	16dd\	.	16ff#\	.	.	.
.	.	.	.	16ee\JJ	.	16gg\JJ	.	.	.
8F#\	.	8A/	.	16dd\LL	.	16ff#\LL	.	.	.
.	.	.	.	16ff#\	.	16aa\JJ	.	.	.
8D\J	.	8a\J	.	16ee\	.	16aa\LL	.	.	.
.	.	.	.	16dd\JJ	.	16ff#\JJ	.	.	.
=85	=85	=85	=85	=85	=85	=85	=85	=85	=85
!	!	!	!	!	!	!	!	!LO:N:vis=00	!
8A\	.	4.a\	.	8cc#\L	.	8ee\L	.	0r	.
4AA/	.	.	.	8cc#\	.	8ee\	.	.	.
.	.	.	.	8cc#\	.	8ee\	.	.	.
8D\	.	8a\	.	8dd\J	.	8ff#\J	.	.	.
=86	=86	=86	=86	=86	=86	=86	=86	=86	=86
!LO:N:vis=4.	!	!	!	!	!	!	!	!	!
4C#/	6_ 5	8e\L	.	4.ee\	.	4.gg\	.	.	.
.	.	8f#\	.	.	.	.	.	.	.
4C#/	5	8e\	.	.	.	.	.	.	.
!	!	!	!	!	!	!LO:SIC:custos:v	!	!	!
.	.	8e\J	.	8ee\	.	8gg\	.	.	.
!	!	!	!	!	!	!LO:LB:g=original	!	!	!
=87	=87	=87	=87	=87	=87	=87	=87	=87	=87
!LO:TX:a:t=P:problem: 1 brakujący takt [por. t.20]	!	!	!	!	!	!	!	!	!
8D\Lyy	.	8f#\L	.	8.dd\L	.	(8.ff#\L	.	.	.
8G\yy	.	8g\J	.	.	.	.	.	.	.
.	.	.	.	16ee\K	.	16ee\K	.	.	.
8A\yy	.	8e\L	.	8.cc#\	.	8.ee\	.	.	.
8AA\Jyy	.	8g\J	.	.	.	.	.	.	.
.	.	.	.	16dd\Jk	.	16dd\Jk)	.	.	.
=88	=88	=88	=88	=88	=88	=88	=88	=88	=88
8D\L	.	4.f#\	.	8dd\L	.	8dd\L	.	.	.
8G\	6 5	.	.	8dd\J	.	8ee\	.	.	.
8A\	.	.	.	8.ee\L	.	8a\	.	.	.
8AA\J	4	8e\	.	.	.	8cc#\J	.	.	.
.	3	.	.	16ee\Jk	.	.	.	.	.
=89	=89	=89	=89	=89	=89	=89	=89	=89;;	=89
4.D;;\	.	4.f#;;\	.	4.ff#;;\	.	4.dd;;\	.	4r	.
.	.	.	.	.	.	.	.	8r	.
!	!	!	!	!	!	!	!	!LO:SIC:custos:v	!
8r	.	8B/	.	8dd\	.	8ff#\	.	8ff#\	Sin-
!	!	!	!	!	!	!	!	!LO:LB:g=original	!
=90	=90	=90	=90	=90	=90	=90	=90	=90	=90
!LO:N:vis=00	!	!	!LO:DY:b:t=piano	!	!	!	!	!	!
0r	.	8B/L	p	8dd\L	.	8ff#\L	.	8ff#\	-ce-
.	.	8B/J	.	8dd\J	.	8ff#\J	.	8ff#\	-ro
.	.	8A#X/L	.	8dd\L	.	8ff#\L	.	8ff#\	cor-
.	.	8A#/J	.	16cc#\L	.	16ee\L	.	(16ee\LL	-de
!	!	!	!	!LO:TX:a:t=♭	!	!	!	!	!
.	.	.	.	16b\JJ	.	16dd\JJ	.	16dd\JJ)	.
=91	=91	=91	=91	=91	=91	=91	=91	=91	=91
.	.	8.f#\L	.	8a#X/L	.	8.cc#\L	.	8.cc#\	pe-
.	.	.	.	8a#/	.	.	.	.	.
.	.	16f#\K	.	.	.	16cc#\K	.	16cc#\	-ti-
.	.	8f#\	.	8a#/	.	8cc#\	.	8cc#\	-te
!	!	!	!	!LO:SIC:custos:v	!	!	!	!	!
.	.	8f#\J	.	8f#/J	.	8a#X\J	.	8a#X\	fe-
!	!	!	!	!LO:LB:g=original	!	!	!	!	!
=92	=92	=92	=92	=92	=92	=92	=92	=92	=92
!	!	!	!	!LO:TX:a:t=Solo	!	!	!	!	!
.	.	8B/L	.	8ff#\L	.	8b\L	.	8b\	-ret
.	.	8c#/	.	8ff#\J	.	8a#X\	.	8a#X\	au-
.	.	8d/	.	8ff#\L	.	8b\	.	8b\	-xi-
!	!	!LO:SIC:custos:v	!	!	!	!	!	!	!
.	.	8e/J	.	16ee\L	.	8cc#\J	.	8cc#\	-li-
.	.	.	.	16dd\JJ	.	.	.	.	.
!	!	!LO:LB:g=original	!	!	!	!	!	!	!
=93	=93	=93	=93	=93	=93	=93	=93	=93	=93
.	.	4.f#\	.	4.cc#\	.	4.a#X/	.	4.a#X\	-um
.	.	8c#\	.	8cc#\	.	8ff#\	.	8ff#\	mun-
=94	=94	=94	=94	=94	=94	=94	=94	=94	=94
!LO:N:vis=0	!	!	!	!	!	!	!	!	!
1r	.	8B/L	.	8dd\L	.	8ff#\L	.	8ff#\	-da-
.	.	8B/	.	8dd\J	.	8ff#\J	.	8ff#\	-na
.	.	8A#X/	.	8dd\L	.	8ff#\L	.	8ff#\	quae
.	.	8B/J	.	16cc#\L	.	16ee\L	.	(16ee\LL	sunt
!	!	!	!	!	!	!	!	!LO:SIC:custos:v	!
.	.	.	.	16b\JJ	.	16dd\JJ	.	16dd\JJ)	.
!	!	!	!	!	!	!	!	!LO:LB:g=original	!
=95	=95	=95	=95	=95	=95	=95	=95	=95	=95
.	.	8f#\L	.	8a#X/L	.	8.cc#\L	.	8.cc#\	sper-
.	.	8f#\	.	8a#/	.	.	.	.	.
.	.	.	.	.	.	16cc#\Jk	.	16cc#\	-ni-
.	.	8f#\	.	8a#/	.	8cc#\L	.	8cc#\	-te
.	.	8f#\J	.	8f#/J	.	8a#X\J	.	8a#X\	e-
=96	=96	=96	=96	=96	=96	=96	=96	=96	=96
2r	.	8B/L	.	8ff#\L	.	8b\L	.	8b\	-rit
.	.	8c#/	.	8ff#\J	.	8a#X\	.	8a#X\	re-
.	.	8d/	.	8ff#\L	.	8b\	.	8b\	-fu-
.	.	8e/J	.	16ee\L	.	8cc#\J	.	8cc#\	-gi-
.	.	.	.	16dd\JJ	.	.	.	.	.
=97	=97	=97	=97	=97	=97	=97	=97	=97	=97
4r	.	4.f#\	.	4.cc#\	.	4.a#X/	.	4.a#X\	-um
8r	.	.	.	.	.	.	.	.	.
!	!	!	!	!	!	!LO:SIC:custos:v	!	!	!
8F#\	#	8f#\	.	8a#X/	.	8cc#\	.	8r	.
!	!	!	!	!	!	!LO:LB:g=original	!	!	!
=98	=98	=98	=98	=98	=98	=98	=98	=98	=98
!	!	!	!	!	!	!	!	!LO:N:vis=00	!
8B\L	.	8f#\L	.	8b\L	.	8dd\L	.	0r	.
8F#\	#	8f#\	.	8a#X\J	.	8cc#\	.	.	.
8B\	.	8f#\	.	8b\L	.	8dd\	.	.	.
8F#\J	#	8f#\J	.	8a#\J	.	8cc#\J	.	.	.
=99	=99	=99	=99	=99	=99	=99	=99	=99	=99
8B\L	.	8f#\L	.	8b/L	.	16dd\LL	.	.	.
.	.	.	.	.	.	(16ee\	.	.	.
!	!	!	!	!LO:TX:b:t=♯	!	!	!	!	!
8F#\	#	8f#\	.	8a#y/	.	16cc#\	.	.	.
.	.	.	.	.	.	16ee\JJ)	.	.	.
8D\	-	8f#\	.	8b/	.	8dd\L	.	.	.
!	!	!	!	!LO:TX:b:t=♯	!	!	!	!	!
8F#\J	.	8f#\J	.	8a#y/J	.	8cc#\J	.	.	.
=100	=100	=100	=100	=100	=100	=100	=100	=100	=100
8B\L	.	8f#\L	.	8b/L	.	8dd\L	.	.	.
!	!	!	!	!LO:TX:b:t=♯	!	!	!	!	!
8F#\	.	8f#\	.	8a#y/	.	8cc#\	.	.	.
8D\	6	8f#\	.	8b/	.	8dd\	.	.	.
!	!	!	!	!LO:TX:b:t=♯	!	!	!	!	!
8F#\J	.	8f#\J	.	8a#y/J	.	8cc#\J	.	.	.
!LO:LB:g=original	!	!	!	!	!	!	!	!	!
=101	=101	=101	=101	=101	=101	=101	=101	=101	=101
8B\L	.	8f#\L	.	8b/L	.	8dd\L	.	.	.
!	!	!	!	!LO:TX:b:t=♯	!	!	!	!	!
8F#\	.	8f#\	.	8a#y/	.	8cc#\	.	.	.
8D\	.	8f#\	.	8b/	.	8dd\	.	.	.
!	!	!	!	!LO:TX:b:t=♯	!	!	!	!	!
8F#\J	.	8f#\J	.	8a#y/J	.	16cc#\L	.	.	.
.	.	.	.	.	.	16dd\JJ	.	.	.
=102	=102	=102	=102	=102	=102	=102	=102	=102	=102
!	!	!LO:TX:a:t=2	!	!	!	!LO:TX:a:t=P:problem: ozdobnik	!	!LO:N:vis=0	!
!	!	!LO:N:vis=0	!	!	!	!	!	!	!
4E\	.	1r	.	4.cc#\	.	4.eeT\	.	1r	.
4r	.	.	.	.	.	.	.	.	.
.	.	.	.	16dd\LL	.	(16ff#\LL	.	.	.
.	.	.	.	16cc#\JJ	.	16ee\JJ)	.	.	.
=103	=103	=103	=103	=103	=103	=103	=103	=103	=103
4BB/	.	.	.	4.b\	.	4.dd\	.	.	.
8r	.	.	.	.	.	.	.	.	.
8BB/	.	.	.	16cc#\LL	.	16ee\LL	.	.	.
!	!	!	!	!LO:SIC:custos:v	!	!	!	!	!
.	.	.	.	16b\JJ	.	16dd\JJ	.	.	.
!	!	!	!	!LO:LB:g=original	!	!	!	!	!
=104	=104	=104	=104	=104	=104	=104	=104	=104	=104
!LO:TX:t=P:problem:mixed beam	!	!	!	!	!	!	!	!	!
8F#\L	.	8f#\L	.	8a#X\L	.	8cc#\L	.	2r	.
8E\	6 5	8f#\	.	16b\L	.	16dd\L	.	.	.
.	.	.	.	16cc#\JJ	.	16ee\JJ	.	.	.
8F#\	.	8f#\	.	8a#/L	.	8.cc#\L	.	.	.
8FF#/J	#	8f#\J	.	8a#/J	.	.	.	.	.
.	.	.	.	.	.	16cc#\Jk	.	.	.
=105	=105	=105	=105	=105	=105	=105	=105	=105	=105
!	!	!LO:N:vis=4	!	!	!	!	!	!	!
4.BB/	.	4.d#X\	.	4.b\	.	4.b\	.	4r	.
.	.	.	.	.	.	.	.	8r	.
8r	.	8B/	.	8dd\	.	8ff#\	.	8ff#\	Sin-
=106	=106	=106	=106	=106	=106	=106	=106	=106	=106
!LO:N:vis=00	!	!	!	!	!	!	!	!	!
0r	.	8B/L	.	8dd\L	.	8ff#\L	.	8ff#\	-ce-
.	.	8B/	.	8dd\J	.	8ff#\J	.	8ff#\	-ro
.	.	8A#X/	.	8dd\L	.	8ff#\L	.	8ff#\	cor-
!	!	!LO:SIC:custos:v	!	!	!	!	!	!	!
.	.	8B/J	.	16cc#\L	.	16ee\L	.	(16ee\LL	-de
!	!	!	!	!	!	!	!	!LO:SIC:custos:v	!
.	.	.	.	16b\JJ	.	16dd\JJ	.	16dd\JJ)	.
!	!	!LO:LB:g=original	!	!	!	!	!	!LO:LB:g=original	!
=107	=107	=107	=107	=107	=107	=107	=107	=107	=107
.	.	8f#\L	.	8a#X/L	.	8.cc#\L	.	8.cc#\	pe-
.	.	8f#\	.	8a#/	.	.	.	.	.
.	.	.	.	.	.	16cc#\Jk	.	16cc#\	-ti-
.	.	8f#\	.	8a#/	.	8cc#\L	.	8cc#\	-te
.	.	8f#\J	.	8f#/J	.	8a#X\J	.	8a#X\	fe-
=108	=108	=108	=108	=108	=108	=108	=108	=108	=108
.	.	8B/L	.	8ff#\L	.	8b\L	.	8b\	-ret
.	.	8c#/	.	8ff#\J	.	8a#X\	.	8a#X\	au-
!	!	!LO:TX:b:t=♯	!	!	!	!	!	!	!
.	.	8d#y/	.	8ff#\L	.	8b\	.	8b\	-xi-
.	.	8e/J	.	16ee\L	.	8cc#\J	.	8cc#\	-li-
.	.	.	.	16dd\JJ	.	.	.	.	.
=109	=109	=109	=109	=109	=109	=109	=109	=109	=109
.	.	4.f#\	.	4.cc#\	.	4.a#X/	.	4.a#X\	-um
.	.	8B/	.	8cc#\	.	8ff#\	.	8ff#\	mun-
=110	=110	=110	=110	=110	=110	=110	=110	=110	=110
!LO:N:vis=00	!	!	!	!	!	!	!	!	!
0r	.	8B/L	.	8dd\L	.	8ff#\L	.	8ff#\	-da-
.	.	8B/	.	8dd\J	.	8ff#\J	.	8ff#\	-na
.	.	8A#X/	.	8dd\L	.	8ff#\L	.	8ff#\	quae
.	.	8B/J	.	16cc#\L	.	16ee\L	.	(16ee\LL	sunt
!	!	!	!	!	!	!LO:SIC:custos:v	!	!	!
.	.	.	.	16b\JJ	.	16dd\JJ	.	16dd\JJ)	.
!	!	!	!	!	!	!LO:LB:g=original	!	!	!
=111	=111	=111	=111	=111	=111	=111	=111	=111	=111
.	.	8f#\L	.	8a#X/L	.	8.cc#\L	.	8.cc#\	sper-
.	.	8f#\	.	16a#/L	.	.	.	.	.
.	.	.	.	16a#/JJ	.	16cc#\K	.	16cc#\	-ni-
.	.	8f#\	.	8a#/L	.	8cc#\	.	8cc#\	-te
!	!	!	!	!	!	!	!	!LO:SIC:custos:v	!
.	.	8f#\J	.	8f#/J	.	8a#X\J	.	8a#X\	e-
!	!	!	!	!	!	!	!	!LO:LB:g=original	!
=112	=112	=112	=112	=112	=112	=112	=112	=112	=112
.	.	8B/L	.	8ff#\L	.	8b\L	.	8b\	-rit
.	.	8c#/	.	8ff#\J	.	8a#X\	.	8a#X\	re-
.	.	8d/	.	8ff#\L	.	8b\	.	8b\	-fu-
.	.	8e/J	.	16ee\L	.	8cc#\J	.	8cc#\	-gi-
.	.	.	.	16dd\JJ	.	.	.	.	.
=113	=113	=113	=113	=113	=113	=113	=113	=113	=113
.	.	4.f#\	.	4.cc#\	.	4.a#X/	.	4.a#X\	-um
.	.	8B/	.	8cc#\	.	8dd\	.	8dd\	Ma-
=114	=114	=114	=114	=114	=114	=114	=114	=114	=114
!LO:N:vis=00	!	!	!	!	!	!	!	!	!
0r	.	8f#\L	.	8a/L	.	8cc#\L	.	8cc#\	-ri-
.	.	8B\	.	8b/	.	8dd\	.	8dd\	-a
.	.	8f#\	.	8a/	.	8cc#\	.	8cc#\	sem-
.	.	8B\J	.	8b/J	.	8dd\J	.	8dd\	-per
!	!	!	!	!LO:LB:g=original	!	!	!	!	!
=115	=115	=115	=115	=115	=115	=115	=115	=115	=115
.	.	8f#\	.	8.cc#\L	.	8.ee\L	.	8.ee\	pro-
.	.	8r	.	.	.	.	.	.	.
.	.	.	.	16b\K	.	16dd\Jk	.	16dd\	-te-
!	!	!	!	!LO:TX:a:t=♯	!	!	!	!	!
.	.	8r	.	8a#y\	.	8cc#\L	.	8cc#\	-get
.	.	8B/	.	8b\J	.	8dd\J	.	8dd\	et
=116	=116	=116	=116	=116	=116	=116	=116	=116	=116
.	.	8f#\L	.	8a#X\L	.	8cc#\L	.	8cc#\	nul-
.	.	8B\	.	8b\	.	8dd\	.	8dd\	-li
.	.	8f#\	.	8a#\	.	8cc#\	.	8cc#\	vi-
.	.	8B\J	.	8b\J	.	8dd\J	.	8dd\	-sa
=117	=117	=117	=117	=117	=117	=117	=117	=117	=117
.	.	8f#\	.	8.cc#\L	.	8.ee\L	.	8.ee\	de
.	.	4r	.	.	.	.	.	.	.
.	.	.	.	16b\K	.	16dd\Jk	.	16dd\	ne-
.	.	.	.	8a\	.	8cc#\L	.	8cc#\	-get
!	!	!	!	!	!	!	!	!LO:SIC:custos:v	!
.	.	8B/	.	8dd\J	.	8ff#\J	.	8ff#\	du-
!	!	!	!	!	!	!	!	!LO:LB:g=original	!
=118	=118	=118	=118	=118	=118	=118	=118	=118	=118
!LO:N:vis=00	!	!	!	!	!	!	!	!	!
0r	.	8B/L	.	8dd\L	.	8ff#\L	.	8ff#\	-cet
!	!	!LO:SIC:custos:v	!	!	!	!	!	!	!
.	.	8B/J	.	8dd\J	.	8ff#\J	.	8ff#\	ad
!	!	!LO:LB:g=original	!	!	!	!	!	!	!
.	.	16B/LL	.	8cc#\L	.	16ee\LL	.	(16ee\LL	Cae-
.	.	16c#/	.	.	.	(16dd\	.	16dd\JJ)	.
.	.	16d/	.	8cc#\J	.	16cc#\	.	(16cc#\LL	-li
.	.	16e/JJ	.	.	.	16b\JJ)	.	16b\JJ)	.
=119	=119	=119	=119	=119	=119	=119	=119	=119	=119
!	!	!	!	!LO:TX:a:t=P:problem: ozdobnik	!	!	!	!	!
.	.	8.f#\L	.	8.cc#t\L	.	8a#X/L	.	8.a#X\	gau-
.	.	.	.	.	.	8a#/	.	.	.
.	.	16f#\K	.	16cc#\Jk	.	.	.	16a#\	-di-
.	.	8f#\	.	8cc#\	.	8a#/	.	8a#\	-um
.	.	8f#\J	.	8r	.	8a#/J	.	8cc#\	du-
=120	=120	=120	=120	=120	=120	=120	=120	=120	=120
.	.	8B\L	.	4r	.	4r	.	4.dd\	-cet
.	.	8f#\	.	.	.	.	.	.	.
.	.	8B\	.	8r	.	8r	.	.	.
!	!	!	!	!LO:TX:b:t=♯	!	!	!	!	!
.	.	8f#\J	.	8a#y/	.	8cc#\	.	8r	.
=121	=121	=121	=121	=121	=121	=121	=121	=121	=121
.	.	8B\L	.	4.b\	.	4.dd\	.	4r	.
.	.	8f#\	.	.	.	.	.	.	.
.	.	8B\	.	.	.	.	.	8r	.
.	.	8f#\J	.	8r	.	8r	.	8cc#\	du-
=122	=122	=122	=122	=122	=122	=122	=122	=122	=122
!LO:N:vis=0	!	!	!	!	!	!LO:TX:a:t=P:problem:ścieśnianie. pauza nad pauzą	!	!	!
1r	.	8B\L	.	4r	.	4r	.	4.dd\	-cet
.	.	8f#\	.	.	.	.	.	.	.
.	.	8B\	.	8r	.	8r	.	.	.
!	!	!	!	!LO:TX:b:t=♯	!	!	!	!	!
.	.	8f#\J	.	8a#y/	.	8cc#\	.	8r	.
=123	=123	=123	=123	=123	=123	=123	=123	=123	=123
.	.	4.B/	.	4.b\	.	4.dd\	.	4r	.
.	.	.	.	.	.	.	.	8r	.
.	.	8f#\	.	8ff#\	.	8cc#\	.	8cc#\	ad
=124	=124	=124	=124	=124	=124	=124	=124	=124	=124
!LO:TX:a:t=Da Capo	!	!LO:TX:t=P:problem:mixed beam	!	!	!	!	!	!	!
2r	.	8B/L	.	8ff#\L	.	8dd\L	.	8dd\	Cae-
.	.	8e\	.	16ee\L	.	16b\L	.	(16b\LL	-li
.	.	.	.	16dd\JJ	.	16cc#\JJ	.	16cc#\JJ)	.
.	.	8f#\	.	8dd\L	.	8f#/L	.	8f#/	gau-
.	.	8F#/J	.	16cc#\L	.	8a#X/J	.	8a#X\	-di-
.	.	.	.	16b\JJ	.	.	.	.	.
=125	=125	=125	=125	=125	=125	=125	=125	=125	=125
!LO:TX:a:t=P:problem: 1 takt pauzy za mało	!	!	!	!	!	!	!	!	!
2ryy	.	4.B/	.	4.b\	.	4b/	.	4.b\	-um
!	!	!	!	!	!	!LO:TX:b:t=Verte cito bo dasz myto	!	!	!
!	!	!	!	!	!	!LO:TX:a:t=Da Capo	!	!	!
.	.	.	.	.	.	4ryy	.	.	.
!	!	!LO:TX:b:t=Verte cito	!	!	!	!	!	!	!
!	!	!LO:TX:b:t=Concerto de Deo ex I Dic mihi	!	!	!	!	!	!LO:TX:b:t=Verte Marysienku Kochana moia	!
!	!	!LO:TX:a:t=Da Capo ||	!	!LO:TX:a:t=Da Capo	!	!	!	!LO:TX:b:t=Da Capo	!
.	.	8ryy	.	8ryy	.	.	.	8ryy	.
==;	==;	==;	==	==;;	==	==;	==	==;;	==
*-	*-	*-	*-	*-	*-	*-	*-	*-	*-
!!!system-decoration: [(g1)][(g2)][(g3)]
!!!ENC:Anna Matuszewska
!!!END:2020-12-03
!!!ENC: Marta Chmielewska
!!!END: 2020-05-29
